source/img/icon/mail-icon.svg

<svg width="23" height="23" viewBox="0 0 23 23" fill="none" xmlns="http://www.w3.org/2000/svg">
<g clip-path="url(#clip0)">
<path d="M3.36005 3.36149C-1.12194 7.83752 -1.12194 15.1029 3.34813 19.5849C7.12683 23.3636 12.8724 23.9536 17.2709 21.3669L17.2948 21.3491C19.0232 22.6543 20.8827 22.8808 22.1701 22.6782C22.5992 22.6126 22.6886 22.0285 22.3012 21.8378C21.1211 21.2537 20.3761 20.1034 19.941 19.1677L20.0602 19.0723C24.0535 14.5665 23.8866 7.67064 19.5775 3.36149C15.1074 -1.1205 7.84204 -1.1205 3.36005 3.36149Z" fill="#27ACE2"/>
<path d="M16.4617 6.0674C15.1326 4.84558 13.4817 4.23169 11.5149 4.23169C9.44076 4.23169 7.67657 4.92902 6.21635 6.31772C4.75612 7.71238 4.02899 9.44081 4.02899 11.5149C4.02899 13.4996 4.72632 15.2102 6.10906 16.6406C7.50373 18.071 9.36924 18.7862 11.7235 18.7862C13.142 18.7862 14.5366 18.4942 15.9015 17.9101C16.3485 17.7194 16.5631 17.2068 16.3843 16.7598C16.1995 16.2949 15.6691 16.0804 15.2101 16.277C14.0241 16.7896 12.8619 17.0459 11.7235 17.0459C9.91756 17.0459 8.5229 16.4976 7.52757 15.3949C6.53819 14.2983 6.0435 13.0049 6.0435 11.5209C6.0435 9.91166 6.57395 8.57064 7.63485 7.49186C8.68979 6.41904 9.99505 5.87668 11.5387 5.87668C12.9632 5.87668 14.1612 6.31772 15.1446 7.20578C16.122 8.08787 16.6167 9.20241 16.6167 10.5434C16.6167 11.4613 16.3902 12.2242 15.9432 12.8381C15.4962 13.452 15.0313 13.75 14.5426 13.75C14.2804 13.75 14.1492 13.6129 14.1492 13.3268C14.1492 13.1003 14.1671 12.8321 14.1969 12.5222L14.7512 8.00443H12.8499L12.7307 8.44548C12.248 8.05211 11.7175 7.84947 11.1394 7.84947C10.2275 7.84947 9.44076 8.21303 8.79111 8.94016C8.1355 9.66729 7.81365 10.603 7.81365 11.7533C7.81365 12.8738 8.09974 13.7798 8.67787 14.4652C9.25599 15.1565 9.95332 15.4963 10.7639 15.4963C11.491 15.4963 12.1109 15.1923 12.6294 14.5844C13.0168 15.1685 13.589 15.4605 14.3459 15.4605C15.4605 15.4605 16.42 14.9777 17.2306 14.0062C18.0412 13.0407 18.4465 11.8666 18.4465 10.5017C18.4524 8.77328 17.7908 7.28922 16.4617 6.0674ZM12.0811 12.8977C11.7473 13.3506 11.342 13.5771 10.8771 13.5771C10.5613 13.5771 10.305 13.4102 10.1083 13.0765C9.9116 12.7427 9.81624 12.3315 9.81624 11.8368C9.81624 11.2229 9.95333 10.7342 10.2275 10.3587C10.5017 9.98318 10.8414 9.79246 11.2407 9.79246C11.5924 9.79246 11.9023 9.92954 12.1764 10.2156C12.4506 10.4957 12.5877 10.8712 12.5877 11.3421C12.5877 11.9262 12.4208 12.4447 12.0811 12.8977Z" fill="white"/>
</g>
<defs>
<clipPath id="clip0">
<rect width="23" height="23" fill="white"/>
</clipPath>
</defs>
</svg>

<svg width="23" height="23" fill="none" xmlns="http://www.w3.org/2000/svg"><g clip-path="url(#clip0)"><path d="M3.36 3.361c-4.482 4.477-4.482 11.742-.012 16.224 3.779 3.779 9.524 4.369 13.923 1.782l.024-.018c1.728 1.305 3.588 1.532 4.875 1.33.43-.066.519-.65.131-.841-1.18-.584-1.925-1.735-2.36-2.67l.12-.096c3.992-4.505 3.826-11.401-.483-15.71-4.47-4.482-11.736-4.482-16.218 0z" fill="#27ACE2"/><path d="M16.462 6.067c-1.33-1.221-2.98-1.835-4.947-1.835-2.074 0-3.838.697-5.299 2.086C4.756 7.712 4.03 9.44 4.03 11.515c0 1.985.697 3.695 2.08 5.126 1.395 1.43 3.26 2.145 5.614 2.145a10.53 10.53 0 0 0 4.178-.876.894.894 0 0 0 .483-1.15.885.885 0 0 0-1.174-.483c-1.186.513-2.348.769-3.487.769-1.805 0-3.2-.548-4.195-1.651-.99-1.097-1.484-2.39-1.484-3.874 0-1.61.53-2.95 1.59-4.03C8.69 6.42 9.996 5.878 11.54 5.878c1.424 0 2.622.44 3.606 1.329.977.882 1.472 1.996 1.472 3.337 0 .918-.227 1.681-.674 2.295-.447.614-.912.912-1.4.912-.263 0-.394-.137-.394-.423 0-.227.018-.495.048-.805l.554-4.518H12.85l-.12.441c-.482-.393-1.013-.596-1.59-.596-.913 0-1.7.364-2.349 1.091-.655.727-.977 1.663-.977 2.813 0 1.12.286 2.027.864 2.712.578.691 1.275 1.031 2.086 1.031.727 0 1.347-.304 1.865-.912.388.585.96.877 1.717.877 1.114 0 2.074-.483 2.885-1.455.81-.965 1.215-2.14 1.215-3.504.006-1.729-.655-3.213-1.984-4.435zm-4.38 6.83c-.335.454-.74.68-1.205.68-.316 0-.572-.167-.769-.5-.196-.334-.292-.745-.292-1.24 0-.614.137-1.103.411-1.478.275-.376.614-.567 1.014-.567.351 0 .661.138.935.424.275.28.412.655.412 1.126 0 .584-.167 1.103-.507 1.556z" fill="#fff"/></g><defs><clipPath id="clip0"><path fill="#fff" d="M0 0h23v23H0z"/></clipPath></defs></svg>
